X: 1252
T: Kim Olursa Şevk ile
C: Ahmet Avni Konuk
O: Turkey
F: http://compmusic.upf.edu/node/140
N: bestenigar--kupe--agirevfer--kim--ahmet_avni_konuk
N: makam= bestenigar
N: form= kupe
N: usul= agirevfer = 9/4
M: 9/4
L: 1/16
K: C _2/4B _3/4d  
Q: 1/4=72
%%MIDI tuningsystem comma53
c4 A2B2 A4 B4 c4 B2d2 B4 c4 z4  | \
w:  Ah  kim  *  *  o lur *  *  sa   | 
z2d4c2 B4 A4 A2c2 B2A2 A2AG ^3/4F4 z4  | 
w:  şevk_ *  *  i le  *  *  *  Bes  | 
z4 A2G2 A4 B4 c2d2 c2d2 dcBA B2c2 B4  | \
w:  te *  *  ni gâ *  *  *  rın   | 
z4 c2d2 e2f2 g2fe eddc B2{e}dc c8 z4  | 
w:  zül *  *  *  fü *  *  ne    | 
z4 c8 g2_7/8a2 g2f2 e2f2 g2a2 g2a2 g2f2  | \
w:  Mun ta *  zır  *  *  *  ol  | 
z4 c2d2 c4 d2e2 d2c2 {d}c2B2 c2BA A4 z4  | 
w:  sun  *  *  he *  mân  *  *  *  *  vâd_  | 
z4 A2G2 A4 B4 c4 B2A2 A3G ^3/4F4 B4  | \
w:  i  *  *  vi sâ *  *  lin   | 
z4 A2B2 c4 B2A2 A3G AG^3/4F^3/4E F8 z4  | 
w:  hül *  *  fü *  ne    | 
|


